X: 1
T: The Shaking of the Sheets II
M:6/4
L:1/4
B:http://users.erols.com/olsonw/BM4.HTM
K:G
B2Gd2B|G2DGB2|Ac2B3/2A/G|EGA/B/c2d:|\
eecddc|B3/2A/GA2D|GGFGGD|BA2G3|\
eecddc|B3/2A/GA2D|GGFGGD|BA2G3|]
